!!!COM: Gaspar van Weerbeke
!!!CDT: ~1450-~1517
!!!OPR: Missa Se mieulx ne vient
!!!OTL: Agnus Dei
!!!OMV: 5
!!!AGN: Mass
!!!SCT: Gas0104e
!!!SCA: Gas0104e
!!!voices: 4
**kern	**text	**kern	**text	**kern	**text	**kern	**text
*part4	*part4	*part3	*part3	*part2	*part2	*part1	*part1
*staff4	*staff4	*staff3	*staff3	*staff2	*staff2	*staff1	*staff1
*I"Bassus	*	*I"Tenor	*	*I"Altus	*	*I"Superius	*
*I'B	*	*I'T	*	*I'A	*	*I'S	*
*clefF4	*	*clefGv2	*	*clefGv2	*	*clefG2	*
*k[]	*	*k[]	*	*k[]	*	*k[]	*
*M3/2	*	*M3/2	*	*M3/2	*	*M3/2	*
*met(O)	*	*met(O)	*	*met(O)	*	*met(O)	*
=1	=1	=1	=1	=1	=1	=1	=1
1.r	.	[1.D	A-	2.A	A-	2d	A-
.	.	.	.	.	.	4f	.
.	.	.	.	4B-i	.	4g	.
.	.	.	.	4A	.	4.a	.
.	.	.	.	8dL	.	.	.
.	.	.	.	8eJ	.	8b-i	.
=2	=2	=2	=2	=2	=2	=2	=2
1.r	.	1.D]	.	4.f	.	4a	.
.	.	.	.	.	.	2b-i	.
.	.	.	.	8e	.	.	.
.	.	.	.	4d	.	.	.
.	.	.	.	4B-i	.	2g	.
.	.	.	.	2A	-gnus	.	.
.	.	.	.	.	.	4f#i	.
=3	=3	=3	=3	=3	=3	=3	=3
1GG	A-	[1.G	-gnus	2r	.	4g	-gnus
.	.	.	.	.	.	2b	De-
.	.	.	.	4.G	De-	.	.
.	.	.	.	.	.	4.dd	.
.	.	.	.	8A	.	.	.
4.GG	.	.	.	8BL	.	.	.
.	.	.	.	8cJ	.	8ccL	.
.	.	.	.	[4d	.	8b	.
8AA	.	.	.	.	.	8aJ	.
=4	=4	=4	=4	=4	=4	=4	=4
4BB	.	1.G]	.	4d]	.	2g	-i,
2C	.	.	.	4.e	.	.	.
.	.	.	.	.	.	2r	.
.	.	.	.	8dL	.	.	.
4D	.	.	.	8c	.	.	.
.	.	.	.	8BJ	.	.	.
2E	-gnus	.	.	2c	-i,	2g	qui
!!LO:LB:g=original
=5	=5	=5	=5	=5	=5	=5	=5
*	*	*lig	*	*	*	*	*
2.D	De-	1.A	De-	1d	qui	2f	tol-
.	.	.	.	.	.	4.f	.
4E	.	.	.	.	.	.	.
.	.	.	.	.	.	8g	.
2F	.	.	.	2c	tol-	2a	.
=6	=6	=6	=6	=6	=6	=6	=6
2.G	.	1.B	.	2B	-lis	4d	-lis
*	*	*Xlig	*	*	*	*	*
.	.	.	.	.	.	4.g	pec-
*	*	*	*	*	*edit	*	*
.	.	.	.	4.G	pec-	.	.
.	.	.	.	.	.	8aL	.
4E	.	.	.	.	.	8b	.
.	.	.	.	8A	.	8ccJ	.
2D	.	.	.	8BL	.	2dd	.
.	.	.	.	8cJ	.	.	.
.	.	.	.	4d	.	.	.
=7	=7	=7	=7	=7	=7	=7	=7
1C	-i,	[1.c	-i,	1e	-ca-	2g	-ca-
.	.	.	.	.	.	4.e	.
.	.	.	.	.	.	8f	.
4r	.	.	.	2e	-ta,	4.g	.
*	*edit	*	*	*	*	*	*
[4E	qui	.	.	.	.	.	.
.	.	.	.	.	.	8f	.
=8	=8	=8	=8	=8	=8	=8	=8
4E]	.	1c]	.	4r	.	4g	.
4.F	tol-	.	.	4c	qui	2a	.
.	.	.	.	4f	.	.	.
8E	.	.	.	.	.	.	.
4C	.	.	.	4e	.	2g	.
2D	.	2A	qui	2d	.	.	.
.	.	.	.	.	.	4f#i	.
!!LO:LB:g=original
=9	=9	=9	=9	=9	=9	=9	=9
2GG	-lis,	1G	tol-	4r	.	4g	-ta,
*	*	*	*	*	*	*	*edit
.	.	.	.	2d	tol-	2dd	pec-
4r	.	.	.	.	.	.	.
*	*Xedit	*	*	*	*	*	*
4G	qui	.	.	4e	.	4b	.
2F	.	2d	-lis	2f	.	2a	.
=10	=10	=10	=10	=10	=10	=10	=10
2E	tol-	2e	pec-	1g	-lis	4g	.
.	.	.	.	.	.	2cc	-ca-
2G	-lis	4d	.	.	.	.	.
.	.	4B	.	.	.	2b	.
*	*	*	*	*	*Xedit	*	*
2A	pec-	2c	.	2e	pec-	.	.
.	.	.	.	.	.	4a	.
=11	=11	=11	=11	=11	=11	=11	=11
4.E	-ca-	2.B	-ca-	2e	-ca-	4.b	.
8F	.	.	.	.	.	8a	.
4.G	.	.	.	4.B	.	2g	-ta
.	.	4G	.	.	.	.	.
8A	.	.	.	8c	.	.	.
4.B	.	2G	-ta	4.d	.	2r	.
8A	.	.	.	8c	.	.	.
=12	=12	=12	=12	=12	=12	=12	=12
8GL	.	2.d	mun-	8BL	.	1.r	.
8FJ	.	.	.	8AJ	.	.	.
4G	.	.	.	4B	.	.	.
4D	.	.	.	4A	.	.	.
2G	.	4B	.	4B	.	.	.
.	.	2A	.	2c	.	.	.
4F#i	.	.	.	.	.	.	.
=13	=13	=13	=13	=13	=13	=13	=13
*	*	*	*	*	*	*	*Xedit
4G	-ta	2G	.	2B	-ta	2b	mun-
4GG	mun-	.	.	.	.	.	.
4AA	.	4F	.	2r	.	4cc	.
4BB	.	2G	.	.	.	4.b	.
2C	.	.	.	2e	mun-	.	.
.	.	.	.	.	.	8a	.
.	.	4E	.	.	.	4g	.
!!LO:LB:g=original
=14	=14	=14	=14	=14	=14	=14	=14
4D	.	4D	.	4f#j	.	4f#j	.
4E	.	4G	.	4e	.	4g	.
4D	.	4F#j	.	4f#j	.	4a	.
*	*	*	*	*	*edit	*	*
4GG	.	4G	.	2.d	-di,	2g	.
2D	-di:	2A	.	.	.	.	.
.	.	.	.	.	.	4f#i	.
=15	=15	=15	=15	=15	=15	=15	=15
4r	.	1G	-di:	4.B	mun-	2g	-di:
*	*edit	*	*	*	*	*	*
4GG	mi-	.	.	.	.	.	.
.	.	.	.	8G	.	.	.
*	*	*	*	*lig	*	*	*
2BB	-se-	.	.	2d	.	2r	.
2C	-re-	4r	.	2e	.	2r	.
*	*	*	*edit	*Xlig	*	*	*
.	.	4G	mi-	.	.	.	.
=16	=16	=16	=16	=16	=16	=16	=16
*	*	*	*	*	*Xedit	*	*
4BB	.	2B	-se-	2d	-di:	1.r	.
4D	.	.	.	.	.	.	.
4C	.	2c	-re-	2r	.	.	.
4E	.	.	.	.	.	.	.
2D	-re,	4B	.	2r	.	.	.
.	.	[4d	.	.	.	.	.
=17	=17	=17	=17	=17	=17	=17	=17
2F	mi-	8d]L	.	1.r	.	2r	.
.	.	8cJ	.	.	.	.	.
.	.	4A	.	.	.	.	.
4G	-se-	4B-j	.	.	.	2r	.
8FL	.	8AL	.	.	.	.	.
8EJ	.	8GJ	.	.	.	.	.
4D	.	2F	.	.	.	4d	mi-
4A	.	.	.	.	.	4f	-se-
=18	=18	=18	=18	=18	=18	=18	=18
4G	.	4E	.	2r	.	4g	.
4F	.	2D	-re	.	.	4.a	-re-
*lig	*	*	*	*	*	*	*
2D	-re-	.	.	2r	.	.	.
.	.	.	.	.	.	8g	.
.	.	2d	no-	.	.	4f	.
2E	.	.	.	2G	mi-	4e	.
*Xlig	*	*	*	*	*	*	*
.	.	4c#i	.	.	.	4g	.
!!LO:PB:g=original
=19	=19	=19	=19	=19	=19	=19	=19
*	*	*lig	*	*	*	*	*
1D	.	2d	.	4A	.	4f	.
.	.	.	.	2F	-se-	2d	-re
.	.	2f	.	.	.	.	.
*	*	*Xlig	*	*	*	*	*edit
.	.	.	.	4D	.	2dd	no-
2AA	-re	2e	.	2A	-re-	.	.
.	.	.	.	.	.	4cc#i	.
=20	=20	=20	=20	=20	=20	=20	=20
4r	.	1.d	-bis,	4D	-re,	4dd	-bis,
*	*	*	*	*	*edit	*	*
2D	no-	.	.	4.F	mi-	8ccL	.
.	.	.	.	.	.	8bJ	.
.	.	.	.	.	.	2a	.
.	.	.	.	8G	.	.	.
4F	.	.	.	4A	.	.	.
4G	.	.	.	4B-i	-se-	2r	.
4F	.	.	.	4A	.	.	.
=21	=21	=21	=21	=21	=21	=21	=21
2D	.	2r	.	2d	-re-	1a	no-
2AA	-bis,	2r	.	2c	-re	.	.
*	*	*	*Xedit	*	*	*	*
4r	.	2f	mi-	4.A	no-	4cc	.
*	*Xedit	*	*	*	*	*	*
4D	mi-	.	.	.	.	4dd	.
.	.	.	.	8B	.	.	.
=22	=22	=22	=22	=22	=22	=22	=22
4AA	-se-	4e	.	4c	.	4cc	.
4BB	.	2d	-se-	4d	.	2b	.
4GG	.	.	.	4B	.	.	.
4AA	.	4c	.	2.e	.	2a	.
2E	-re-	2B	-re-	.	.	.	.
.	.	.	.	.	.	4g	.
!!LO:LB:g=original
=23	=23	=23	=23	=23	=23	=23	=23
4F	.	4A	.	4c	-bis,	2a	-bis,
2D	.	2d	.	4.f	mi-	.	.
.	.	.	.	.	.	2r	.
.	.	.	.	8e	.	.	.
2G	.	4B	.	4d	.	.	.
.	.	2A	.	4c	-se-	2r	.
4F	.	.	.	4A	.	.	.
=24	=24	=24	=24	=24	=24	=24	=24
4G	-re	2G	-re	4B	-re-	2r	.
4E	.	.	.	4G	.	.	.
4D	.	4r	.	2A	-re	4r	.
*	*edit	*	*edit	*	*	*	*
4F	no-	2d	no-	.	.	4f	mi-
2E	-bis,	.	.	2G	no-	4g	.
.	.	4c	.	.	.	4e	.
=25	=25	=25	=25	=25	=25	=25	=25
4.D	mi-	4.d	.	4A	.	4.f	-se-
.	.	.	.	4d	.	.	.
8E	.	8c	.	.	.	8g	.
4.F	.	2A	-bis,	2c	.	8aL	.
.	.	.	.	.	.	8bJ	.
.	.	.	.	.	.	4.cc	-re-
8E	.	.	.	.	.	.	.
4.C	-se-	2e	mi-	8cL	.	.	.
.	.	.	.	8d	.	8bL	.
.	.	.	.	8e	.	8cc	.
8D	.	.	.	8fJ	.	8bJ	.
=26	=26	=26	=26	=26	=26	=26	=26
4.E	.	2.e	.	2g	-bis,	4.g	.
8F	.	.	.	.	.	8a	.
8GL	.	.	.	4r	.	8bL	.
8FJ	.	.	.	.	.	8aJ	.
4.G	-re-	2d	-se-	4g	mi-	4.b	.
.	.	.	.	8dL	.	.	.
8F	.	.	.	8eJ	.	8a	.
[4D	.	[4d	.	4f	-se-	[4f	.
!!LO:LB:g=original
=27	=27	=27	=27	=27	=27	=27	=27
8D]L	.	2d]	.	4d	.	8f]L	.
8E	.	.	.	.	.	8g	.
8F	.	.	.	4.A	-re-	8a	.
8EJ	.	.	.	.	.	8gJ	.
4.F	.	2c	-re-	.	.	4.a	.
.	.	.	.	8B	.	.	.
.	.	.	.	4.c	.	.	.
8E	.	.	.	.	.	8g	.
4.C	.	[2c	.	.	.	4.e	.
.	.	.	.	8B	.	.	.
.	.	.	.	4G	-re	.	.
8D	.	.	.	.	.	8f	.
=28	=28	=28	=28	=28	=28	=28	=28
8EL	.	4c]	.	4r	.	8gL	.
8DJ	.	.	.	.	.	8fJ	.
*	*	*	*	*	*Xedit	*	*
4.E	-re	2B	-re	4.G	no-	4.g	.
8D	.	.	.	8AL	.	8f	.
4.BB	.	2.B	.	8B	.	4.d	-re
.	.	.	.	8cJ	.	.	.
*	*	*	*	*	*edit	*	*
.	.	.	.	4d	-bis,	.	.
8CL	.	.	.	.	.	8eL	.
8D	.	.	.	4r	.	8f	.
8CJ	.	.	.	.	.	8eJ	.
=29	=29	=29	=29	=29	=29	=29	=29
*	*	*	*Xedit	*	*	*	*Xedit
4D	.	4A	no-	4d	no-	4f	no-
*	*Xedit	*	*	*	*	*	*
2AA	no-	2c	.	2e	.	2a	.
4BB	.	4B	.	4d	.	2g	.
4C	.	2A	.	4e	.	.	.
4D	.	.	.	4d	.	4f#i	.
=30	=30	=30	=30	=30	=30	=30	=30
[1.GGl	-bis.	[1.Gl	-bis.	2.B	.	[1.gl	-bis.
.	.	.	.	4G	.	.	.
.	.	.	.	4.B	.	.	.
.	.	.	.	8c	.	.	.
=31	=31	=31	=31	=31	=31	=31	=31
*	*	*	*	*	*Xedit	*	*
1.GG]	.	1.G]	.	1.dl	-bis.	1.g]	.
.	.	.	.	.	.	.	.
.	.	.	.	.	.	.	.
!!LO:LB:g=original
=32||	=32||	=32||	=32||	=32||	=32||	=32||	=32||
*M2/2	*	*M2/2	*	*M2/2	*	*M2/2	*
*met(C|)	*	*met(C|)	*	*met(C|)	*	*met(C|)	*
*	*	*	*	*	*	*lig	*
2.G	A-	1r	.	1r	.	[1b	A-
4A	.	.	.	.	.	.	.
=33	=33	=33	=33	=33	=33	=33	=33
2B	.	1r	.	2.G	A-	1b_	.
[2E	.	.	.	.	.	.	.
.	.	.	.	4A	.	.	.
=34	=34	=34	=34	=34	=34	=34	=34
4E]	.	1r	.	2B	.	1b_	.
4F	.	.	.	.	.	.	.
2G	.	.	.	[2E	.	.	.
=35	=35	=35	=35	=35	=35	=35	=35
1GG	-gnus	1r	.	4E]	.	1b]	.
.	.	.	.	4F	.	.	.
.	.	.	.	2G	.	.	.
=36	=36	=36	=36	=36	=36	=36	=36
2r	.	1r	.	2D	-gnus	[1a	.
4.D	De-	.	.	4r	.	.	.
.	.	.	.	[4d	De-	.	.
8E	.	.	.	.	.	.	.
=37	=37	=37	=37	=37	=37	=37	=37
4F	.	1r	.	4d]	.	1a]	.
*	*	*	*	*	*	*Xlig	*
4G	.	.	.	8cL	.	.	.
.	.	.	.	8BJ	.	.	.
4A	.	.	.	4c	.	.	.
4F	.	.	.	4d	.	.	.
=38	=38	=38	=38	=38	=38	=38	=38
[1G	-i,	1r	.	4.B	.	1b	-gnus
.	.	.	.	8c	.	.	.
.	.	.	.	4d	.	.	.
.	.	.	.	[4e	.	.	.
!!LO:PB:g=original
=39	=39	=39	=39	=39	=39	=39	=39
1G]	.	1r	.	4e]	.	1r	.
.	.	.	.	2d	.	.	.
.	.	.	.	8cL	.	.	.
.	.	.	.	8BJ	.	.	.
=40	=40	=40	=40	=40	=40	=40	=40
*	*edit	*	*	*	*	*	*
2.D	A-	1r	.	4.d	.	1r	.
.	.	.	.	8c	.	.	.
.	.	.	.	2A	.	.	.
4E	.	.	.	.	.	.	.
=41	=41	=41	=41	=41	=41	=41	=41
2.F	.	1r	.	2D	-i,	1r	.
.	.	.	.	4r	.	.	.
*	*	*	*	*	*edit	*	*
4D	.	.	.	[4d	A-	.	.
=42	=42	=42	=42	=42	=42	=42	=42
2.E	.	1r	.	4d]	.	1r	.
.	.	.	.	8cL	.	.	.
.	.	.	.	8BJ	.	.	.
.	.	.	.	4c	.	.	.
4F	.	.	.	4d	.	.	.
=43	=43	=43	=43	=43	=43	=43	=43
4G	.	1r	.	4B	.	1r	.
4E	.	.	.	4G	.	.	.
4C	.	.	.	2A	-gnus	.	.
[4D	.	.	.	.	.	.	.
=44	=44	=44	=44	=44	=44	=44	=44
4D]	.	1r	.	8DL	De-	1r	.
.	.	.	.	8E	.	.	.
4BB	.	.	.	8F	.	.	.
.	.	.	.	8GJ	.	.	.
2AA	.	.	.	8AL	.	.	.
.	.	.	.	8B	.	.	.
.	.	.	.	8c	.	.	.
.	.	.	.	8dJ	.	.	.
=45	=45	=45	=45	=45	=45	=45	=45
2GG	-gnus	1r	.	4.B	.	1r	.
.	.	.	.	8G	.	.	.
4G	De-	.	.	4B	.	.	.
4A	.	.	.	4A	.	.	.
!!LO:LB:g=original
=46	=46	=46	=46	=46	=46	=46	=46
4B	.	1r	.	4d	.	8dL	De-
.	.	.	.	.	.	8e	.
2G	.	.	.	4B	.	8f	.
.	.	.	.	.	.	8gJ	.
.	.	.	.	2A	.	8aL	.
.	.	.	.	.	.	8b	.
4F	.	.	.	.	.	8cc	.
.	.	.	.	.	.	8ddJ	.
=47	=47	=47	=47	=47	=47	=47	=47
4.G	.	1r	.	4G	.	4.b	.
.	.	.	.	2d	.	.	.
8F	.	.	.	.	.	8g	.
4D	.	.	.	.	.	4b	.
[4F	.	.	.	[4c	.	[4a	.
=48	=48	=48	=48	=48	=48	=48	=48
4F]	.	1r	.	4c]	.	4a]	.
4G	.	.	.	4B	.	2g	.
2D	-i,	.	.	2A	.	.	.
.	.	.	.	.	.	4f#i	.
=49	=49	=49	=49	=49	=49	=49	=49
4r	.	1r	.	2G	-i,	1g	-i,
*	*Xedit	*	*	*	*	*	*
2G	qui	.	.	.	.	.	.
.	.	.	.	2r	.	.	.
4A	tol-	.	.	.	.	.	.
=50	=50	=50	=50	=50	=50	=50	=50
*	*	*	*	*	*Xedit	*	*
2B	-lis	1r	.	4D	qui	2r	.
.	.	.	.	2G	tol-	.	.
2r	.	.	.	.	.	2d	qui
.	.	.	.	4A	-lis	.	.
=51	=51	=51	=51	=51	=51	=51	=51
1r	.	1r	.	2B	pec-	2g	tol-
.	.	.	.	4A	.	2a	-lis
.	.	.	.	[4d	-ca-	.	.
=52	=52	=52	=52	=52	=52	=52	=52
1r	.	1r	.	4d]	.	2b	pec-
.	.	.	.	8cL	.	.	.
.	.	.	.	8BJ	.	.	.
.	.	.	.	4c	.	4a	.
.	.	.	.	[4B	.	[4dd	-ca-
!!LO:LB:g=original
=53	=53	=53	=53	=53	=53	=53	=53
1r	.	1r	.	4B]	.	4dd]	.
.	.	.	.	2A	.	8ccL	.
.	.	.	.	.	.	8bJ	.
.	.	.	.	.	.	4cc	.
.	.	.	.	4G	.	[4b	.
=54	=54	=54	=54	=54	=54	=54	=54
1r	.	1r	.	2A	-ta	4b]	.
.	.	.	.	.	.	2a	.
.	.	.	.	4r	.	.	.
.	.	.	.	4E	mun-	4g	.
=55	=55	=55	=55	=55	=55	=55	=55
1r	.	1r	.	4F	.	2a	-ta
.	.	.	.	4A	.	.	.
.	.	.	.	4G	.	4r	.
.	.	.	.	8FL	.	4e	mun-
.	.	.	.	8EJ	.	.	.
=56	=56	=56	=56	=56	=56	=56	=56
1r	.	1r	.	2D	-di,	4f	.
.	.	.	.	.	.	4a	.
.	.	.	.	4r	.	4g	.
*	*	*	*	*	*edit	*	*
.	.	.	.	[4G	pec-	8fL	.
.	.	.	.	.	.	8eJ	.
=57	=57	=57	=57	=57	=57	=57	=57
2r	.	1r	.	4G]	.	2d	-di:
.	.	.	.	4F	.	.	.
4r	.	.	.	4.G	-ca-	2r	.
[4G	pec-	.	.	.	.	.	.
.	.	.	.	8B	.	.	.
=58	=58	=58	=58	=58	=58	=58	=58
4G]	.	1r	.	4.A	.	1r	.
4F	.	.	.	.	.	.	.
.	.	.	.	8G	.	.	.
4G	-ca-	.	.	4E	-ta	.	.
4B	.	.	.	4e	mun-	.	.
!!LO:LB:g=original
=59	=59	=59	=59	=59	=59	=59	=59
4A	.	1r	.	4f	.	1r	.
8GL	.	.	.	8eL	.	.	.
8FJ	.	.	.	8dJ	.	.	.
4E	-ta	.	.	4c	.	.	.
4G	mun-	.	.	4e	.	.	.
=60	=60	=60	=60	=60	=60	=60	=60
4F	.	1r	.	4d	.	1r	.
8EL	.	.	.	4f	.	.	.
8DJ	.	.	.	.	.	.	.
4C	.	.	.	4e	.	.	.
4D	.	.	.	[4f	.	.	.
=61	=61	=61	=61	=61	=61	=61	=61
4F	.	1r	.	4f]	.	1r	.
4G	.	.	.	2d	.	.	.
2E	.	.	.	.	.	.	.
.	.	.	.	4c#i	.	.	.
=62	=62	=62	=62	=62	=62	=62	=62
2D	-di:	1r	.	2d	-di:	4.d	mi-
.	.	.	.	.	.	8e	.
2r	.	.	.	2r	.	4f	.
.	.	.	.	.	.	4g	.
=63	=63	=63	=63	=63	=63	=63	=63
*	*	*	*	*	*Xedit	*	*
1r	.	1r	.	4.D	mi-	4f	.
.	.	.	.	.	.	2a	-se-
.	.	.	.	8E	.	.	.
.	.	.	.	4F	.	.	.
.	.	.	.	4G	.	4b	.
=64	=64	=64	=64	=64	=64	=64	=64
1r	.	1r	.	4F	.	4a	.
.	.	.	.	2A	-se-	4.cc	-re-
.	.	.	.	.	.	8b	.
.	.	.	.	4B	.	4g	.
=65	=65	=65	=65	=65	=65	=65	=65
1r	.	1r	.	4A	.	4.cc	.
.	.	.	.	4.c	-re-	.	.
.	.	.	.	.	.	8b	.
.	.	.	.	.	.	8aL	.
.	.	.	.	8B	.	8gJ	.
.	.	.	.	4G	.	4b	.
!!LO:LB:g=original
=66	=66	=66	=66	=66	=66	=66	=66
1r	.	1r	.	4.c	.	4.a	.
.	.	.	.	8B	.	8g	.
.	.	.	.	8AL	.	8fL	.
.	.	.	.	8GJ	.	8eJ	.
.	.	.	.	4B	.	4d	.
=67	=67	=67	=67	=67	=67	=67	=67
1r	.	1r	.	4.A	.	4.f	.
.	.	.	.	8G	.	8e	.
.	.	.	.	8FL	.	8dL	.
.	.	.	.	8EJ	.	8cJ	.
.	.	.	.	4F	-re,	[4d	-re,
=68	=68	=68	=68	=68	=68	=68	=68
*	*	*	*	*	*edit	*	*
2r	.	1r	.	4D	mi-	4d]	.
*	*	*	*	*	*	*	*edit
.	.	.	.	2G	.	4B	mi-
2D	mi-	.	.	.	.	4A	.
.	.	.	.	4F	.	4d	-se-
=69	=69	=69	=69	=69	=69	=69	=69
4E	-se-	1r	.	4G	-se-	4B	.
4C	.	.	.	4E	-re-	2e	-re-
4D	-re-	.	.	4F	.	.	.
4GG	.	.	.	4G	.	[4d	.
=70	=70	=70	=70	=70	=70	=70	=70
2AA	.	1r	.	2E	.	4d]	.
.	.	.	.	.	.	4c#i	.
2BB	-re	.	.	4D	-re	2d	-re
.	.	.	.	[4d	no-	.	.
=71	=71	=71	=71	=71	=71	=71	=71
*	*edit	*	*	*	*	*	*
4D	no-	1r	.	4d]	.	1r	.
4E	.	.	.	2B	.	.	.
2C	.	.	.	.	.	.	.
.	.	.	.	4A	.	.	.
!!LO:PB:g=original
=72	=72	=72	=72	=72	=72	=72	=72
2BB	-bis,	1r	.	1B	-bis,	2r	.
2BB	.	.	.	.	.	4r	.
*	*	*	*	*	*	*	*Xedit
.	.	.	.	.	.	[4dd	no-
=73	=73	=73	=73	=73	=73	=73	=73
1r	.	1r	.	4d	no-	8dd]L	.
.	.	.	.	.	.	8ccJ	.
.	.	.	.	4e	.	2b	.
.	.	.	.	2c	.	.	.
.	.	.	.	.	.	4a	.
=74	=74	=74	=74	=74	=74	=74	=74
*	*	*	*	*	*	*	*edit
4.BB	no-	1r	.	1B	-bis,	[1b	-bis,
8C	.	.	.	.	.	.	.
4D	.	.	.	.	.	.	.
[4E	.	.	.	.	.	.	.
=75	=75	=75	=75	=75	=75	=75	=75
4E]	.	1r	.	1r	.	1b]	.
8DL	.	.	.	.	.	.	.
8CJ	.	.	.	.	.	.	.
4D	.	.	.	.	.	.	.
4E	.	.	.	.	.	.	.
=76	=76	=76	=76	=76	=76	=76	=76
2BB	-bis,	1r	.	1B	no-	1r	.
4r	.	.	.	.	.	.	.
[4D	no-	.	.	.	.	.	.
=77	=77	=77	=77	=77	=77	=77	=77
4D]	.	1r	.	2A	-bis,	2r	.
8CL	.	.	.	.	.	.	.
8BBJ	.	.	.	.	.	.	.
4C	.	.	.	2r	.	2a	no-
4D	.	.	.	.	.	.	.
=78	=78	=78	=78	=78	=78	=78	=78
*	*	*	*	*	*	*lig	*
2GG	-bis,	1r	.	1r	.	2g	.
4r	.	.	.	.	.	2b	.
*	*Xedit	*	*	*	*	*Xlig	*
[4G	no-	.	.	.	.	.	.
!!LO:LB:g=original
=79	=79	=79	=79	=79	=79	=79	=79
4G]	.	1r	.	2r	.	2a	-bis,
8FL	.	.	.	.	.	.	.
8EJ	.	.	.	.	.	.	.
*	*	*	*	*	*Xedit	*	*
4F	.	.	.	2A	no-	2r	.
4G	.	.	.	.	.	.	.
=80	=80	=80	=80	=80	=80	=80	=80
*	*edit	*	*	*	*	*	*
4GG	-bis,	1r	.	4G	.	1r	.
4.C	no-	.	.	2A	.	.	.
8AA	.	.	.	.	.	.	.
*	*	*	*	*	*edit	*	*
[4D	.	.	.	[4B	-bis,	.	.
=81	=81	=81	=81	=81	=81	=81	=81
4D]	.	1r	.	4B]	.	4r	.
4BB	.	.	.	2G	no-	4g	no-
2AA	.	.	.	.	.	2a	.
.	.	.	.	4F#i	.	.	.
=82	=82	=82	=82	=82	=82	=82	=82
2GG	-bis,	1r	.	4.G	.	4.b	.
.	.	.	.	8A	.	8cc	.
4G	no-	.	.	4B	.	4b	.
4A	.	.	.	[4c	.	[4a	.
=83	=83	=83	=83	=83	=83	=83	=83
4F	.	1r	.	8c]L	.	4a]	.
.	.	.	.	8dJ	.	.	.
4G	.	.	.	4B	.	4.g	.
2D	.	.	.	2A	.	.	.
.	.	.	.	.	.	8f#iL	.
.	.	.	.	.	.	8f#i	.
.	.	.	.	.	.	8eJ	.
=84	=84	=84	=84	=84	=84	=84	=84
*	*	*	*	*	*Xedit	*	*Xedit
4.E	.	1r	.	[1Gl	-bis.	[1gl	-bis.
8D	.	.	.	.	.	.	.
4BB	.	.	.	.	.	.	.
4C	.	.	.	.	.	.	.
=85	=85	=85	=85	=85	=85	=85	=85
*	*Xedit	*	*	*	*	*	*
1GGl	-bis.	1r	.	1G]	.	1g]	.
!!LO:LB:g=original
=86||	=86||	=86||	=86||	=86||	=86||	=86||	=86||
*M2/2	*	*M2/2	*	*M2/2	*	*M2/2	*
*met(C|)	*	*met(C|)	*	*met(C|)	*	*met(C|)	*
1r	.	1r	.	2D	A-	1r	.
.	.	.	.	[2G	.	.	.
=87	=87	=87	=87	=87	=87	=87	=87
2GG	A-	1r	.	2G]	.	1r	.
[2C	.	.	.	2G	-gnus	.	.
=88	=88	=88	=88	=88	=88	=88	=88
2C]	.	1r	.	2A	De-	1r	.
2C	-gnus	.	.	4G	.	.	.
.	.	.	.	4A	.	.	.
=89	=89	=89	=89	=89	=89	=89	=89
*	*edit	*	*	*	*	*	*
1D	De-	1r	.	2B	-i,	2r	.
.	.	.	.	2r	.	2d	A-
=90	=90	=90	=90	=90	=90	=90	=90
*	*	*	*	*	*edit	*	*
[1E	.	1r	.	4.G	A-	1g	.
.	.	.	.	8A	.	.	.
.	.	.	.	4B	.	.	.
.	.	.	.	[4c	.	.	.
=91	=91	=91	=91	=91	=91	=91	=91
2E]	.	1r	.	8c]L	.	2g	-gnus
.	.	.	.	8BJ	.	.	.
.	.	.	.	4G	.	.	.
*	*	*	*	*	*	*	*edit
2D	-i,	.	.	2d	-gnus	[2a	De-
!!LO:LB:g=original
=92	=92	=92	=92	=92	=92	=92	=92
1r	.	2D	A-	2r	.	4a]	.
.	.	.	.	.	.	8gL	.
.	.	.	.	.	.	8aJ	.
.	.	[2G	.	4.B	De-	[2b	.
.	.	.	.	8c	.	.	.
=93	=93	=93	=93	=93	=93	=93	=93
1r	.	2G]	.	4d	.	2b]	.
.	.	.	.	4.e	.	.	.
.	.	2G	-gnus	.	.	2b	-i,
.	.	.	.	8d	.	.	.
.	.	.	.	4B	.	.	.
=94	=94	=94	=94	=94	=94	=94	=94
1r	.	2.A	De-	2e	-i,	2.cc	A-
.	.	.	.	4r	.	.	.
.	.	8GL	.	4c	A-	8bL	.
.	.	8AJ	.	.	.	8aJ	.
=95	=95	=95	=95	=95	=95	=95	=95
1G	A-	[1B	.	4.d	.	2.g	.
.	.	.	.	8e	.	.	.
.	.	.	.	4d	.	.	.
.	.	.	.	[4g	.	4a	.
=96	=96	=96	=96	=96	=96	=96	=96
2G	-gnus	2B]	.	4g]	.	4b	.
.	.	.	.	4e	.	4cc	.
*	*Xedit	*	*	*	*	*	*
2G	De-	2B	-i,	2d	-gnus	2dd	-gnus
=97	=97	=97	=97	=97	=97	=97	=97
*	*	*	*edit	*	*	*	*
1C	-i,	2.c	De-	2.e	De-	2r	.
*	*	*	*	*	*	*	*Xedit
.	.	.	.	.	.	2cc	De-
.	.	8BL	.	4f	.	.	.
.	.	8AJ	.	.	.	.	.
!!LO:PB:g=original
=98	=98	=98	=98	=98	=98	=98	=98
*	*	*lig	*	*	*	*	*
1r	.	1G	-i,	4.g	.	2b	.
.	.	.	.	8f	.	.	.
.	.	.	.	4d	.	[2dd	.
.	.	.	.	[4g	.	.	.
=99	=99	=99	=99	=99	=99	=99	=99
1r	.	1d	.	4g]	.	4dd]	.
*	*	*Xlig	*	*	*	*	*
.	.	.	.	8fL	.	4cc	.
.	.	.	.	8eJ	.	.	.
.	.	.	.	2f	-i,	2a	-i,
=100	=100	=100	=100	=100	=100	=100	=100
*	*	*	*Xedit	*	*Xedit	*	*
2r	.	1e	qui	2g	qui	1r	.
[2C	qui	.	.	8gL	tol-	.	.
.	.	.	.	8f	.	.	.
.	.	.	.	8e	.	.	.
.	.	.	.	8dJ	.	.	.
=101	=101	=101	=101	=101	=101	=101	=101
4C]	.	2.e	tol-	4c	.	2cc	qui
4D	.	.	.	8BL	.	.	.
.	.	.	.	8AJ	.	.	.
4.E	tol-	.	.	2G	-lis	[2b	tol-
.	.	8dL	.	.	.	.	.
8F	.	8cJ	.	.	.	.	.
=102	=102	=102	=102	=102	=102	=102	=102
*	*	*lig	*	*	*	*	*
4.G	.	2B	.	1r	.	4b]	.
.	.	.	.	.	.	4.dd	.
8F	.	.	.	.	.	.	.
4D	.	2d	.	.	.	.	.
.	.	.	.	.	.	8cc	.
[4G	.	.	.	.	.	[4b	.
=103	=103	=103	=103	=103	=103	=103	=103
4G]	.	1c	.	1r	.	4b]	.
*	*	*Xlig	*	*	*	*	*
8FL	.	.	.	.	.	8aL	.
8EJ	.	.	.	.	.	8gJ	.
2F	.	.	.	.	.	2a	.
!!LO:LB:g=original
=104	=104	=104	=104	=104	=104	=104	=104
*	*	*	*	*	*edit	*	*
2G	-lis	2.B	.	2.g	pec-	1b	-lis
*	*edit	*	*	*	*	*	*
4.GG	pec-	.	.	.	.	.	.
.	.	4G	.	8fL	.	.	.
8AA	.	.	.	8eJ	.	.	.
=105	=105	=105	=105	=105	=105	=105	=105
4BB	.	1G	-lis	4d	.	1r	.
2C	-ca-	.	.	2e	-ca-	.	.
8BBL	.	.	.	8dL	.	.	.
8AAJ	.	.	.	8cJ	.	.	.
=106	=106	=106	=106	=106	=106	=106	=106
1GG	-ta	2r	.	4B	.	2r	.
.	.	.	.	2G	.	.	.
*	*	*	*	*	*	*	*edit
.	.	2G	pec-	.	.	2b	pec-
.	.	.	.	8FL	.	.	.
.	.	.	.	8EJ	.	.	.
=107	=107	=107	=107	=107	=107	=107	=107
1r	.	2.d	-ca-	4F	.	4a	.
.	.	.	.	2G	.	2b	-ca-
.	.	4c	.	8FL	.	8aL	.
.	.	.	.	8EJ	.	8gJ	.
=108	=108	=108	=108	=108	=108	=108	=108
1r	.	2A	.	4F	.	4a	.
.	.	.	.	4E	.	2g	.
.	.	2A	-ta	2D	-ta	.	.
.	.	.	.	.	.	4f#i	.
=109	=109	=109	=109	=109	=109	=109	=109
*	*	*	*edit	*	*	*	*
4.GG	mun-	2.G	mun-	4.d	mun-	2g	-ta,
8AA	.	.	.	8c	.	.	.
4BB	.	.	.	4B	.	4r	.
*	*	*	*	*	*	*	*Xedit
4C	.	4E	.	4G	.	4g	pec-
!!LO:LB:g=original
=110	=110	=110	=110	=110	=110	=110	=110
4AA	.	2F	.	2c	-di,	4a	.
4BB	.	.	.	.	.	4cc	.
4GG	-di,	2G	.	4r	.	4b	.
*	*	*	*	*	*Xedit	*	*
[4G	pec-	.	.	[4d	pec-	4g	.
=111	=111	=111	=111	=111	=111	=111	=111
4G]	.	2D	-di,	8d]L	.	2a	-ca-
.	.	.	.	8eJ	.	.	.
4F	.	.	.	4f	.	.	.
4G	.	2G	pec-	4d	.	4b	.
[4C	-ca-	.	.	[4e	-ca-	[4cc	.
=112	=112	=112	=112	=112	=112	=112	=112
4C]	.	1A	-ca-	4e]	.	8cc]L	.
.	.	.	.	.	.	8b	.
4.D	.	.	.	4.f	.	8a	.
.	.	.	.	.	.	8gJ	.
.	.	.	.	.	.	4.f	.
8C	.	.	.	8eL	.	.	.
4D	.	.	.	8d	.	.	.
.	.	.	.	8cJ	.	8e	.
=113	=113	=113	=113	=113	=113	=113	=113
4.E	.	1G	-ta	4.B	.	2g	-ta
8D	.	.	.	8c	.	.	.
4BB	.	.	.	4d	.	4r	.
*	*	*	*	*	*	*	*edit
[4GG	.	.	.	[4B	.	[4d	mun-
=114	=114	=114	=114	=114	=114	=114	=114
4GG]	.	1r	.	8B]L	.	4d]	.
.	.	.	.	8AJ	.	.	.
4BB	.	.	.	2G	.	8cL	.
.	.	.	.	.	.	8BJ	.
2AA	.	.	.	.	.	4.c	.
.	.	.	.	4F#i	.	.	.
.	.	.	.	.	.	8d	.
=115	=115	=115	=115	=115	=115	=115	=115
*	*	*lig	*Xedit	*	*	*	*
1GG	-ta,	1G	mun-	2G	-ta	2B	-di,
*	*	*	*	*	*edit	*	*
.	.	.	.	2d	mun-	2r	.
!!LO:LB:g=original
=116	=116	=116	=116	=116	=116	=116	=116
4r	.	1B	.	4.B	.	4.d	pec-
*	*	*Xlig	*	*	*	*	*
2G	pec-	.	.	.	.	.	.
.	.	.	.	8G	.	8e	.
.	.	.	.	4d	.	4d	.
4E	.	.	.	[4e	.	[4g	-ca-
=117	=117	=117	=117	=117	=117	=117	=117
4C	-ca-	1c	.	8e]L	.	4g]	.
.	.	.	.	8d	.	.	.
4E	.	.	.	8c	.	4g	.
.	.	.	.	8BJ	.	.	.
2F	.	.	.	2A	-di,	2a	.
=118	=118	=118	=118	=118	=118	=118	=118
*	*	*lig	*	*	*	*	*
2G	-ta	2B	.	4r	.	2b	-ta
*	*	*	*	*	*Xedit	*	*
.	.	.	.	2G	mun-	.	.
2r	.	[2d	.	.	.	4r	.
*	*	*	*	*	*	*	*Xedit
.	.	.	.	8FL	.	4g	mun-
.	.	.	.	8EJ	.	.	.
=119	=119	=119	=119	=119	=119	=119	=119
1r	.	4d]	.	4D	.	4f	.
*	*	*Xlig	*	*	*	*	*
.	.	8cL	.	2G	.	4g	.
.	.	8BJ	.	.	.	.	.
.	.	2A	.	.	.	2a	.
.	.	.	.	4F#i	.	.	.
=120	=120	=120	=120	=120	=120	=120	=120
*	*	*	*edit	*	*	*	*edit
4r	.	2.B	-di,	2G	-di,	2.d	-di,
4.GG	mun-	.	.	.	.	.	.
*	*	*	*	*	*edit	*	*
.	.	.	.	4.D	mun-	.	.
8AAL	.	.	.	.	.	.	.
8BB	.	8AL	.	.	.	8cL	.
8CJ	.	8GJ	.	8E	.	8BJ	.
=121	=121	=121	=121	=121	=121	=121	=121
2D	-di,	2.F	mun-	8FL	.	4.A	mun-
.	.	.	.	8GJ	.	.	.
.	.	.	.	2A	.	.	.
.	.	.	.	.	.	8B	.
2r	.	.	.	.	.	4c	.
.	.	4D	.	4B-i	.	[4d	.
!!LO:PB:g=original
=122	=122	=122	=122	=122	=122	=122	=122
2AA	mun-	2E	.	2A	-di,	4d]	.
.	.	.	.	.	.	4c#i	.
4BB	.	2D	-di,	2r	.	4d	-di,
[4D	.	.	.	.	.	[4f	mun-
=123	=123	=123	=123	=123	=123	=123	=123
8D]L	.	2d	mun-	1r	.	8f]L	.
8EJ	.	.	.	.	.	8gJ	.
2F	.	.	.	.	.	2a	.
.	.	[2d	.	.	.	.	.
[4G	.	.	.	.	.	[4b-i	.
=124	=124	=124	=124	=124	=124	=124	=124
8G]L	.	2d]	.	1r	.	8b-]L	.
8F	.	.	.	.	.	8a	.
8E	.	.	.	.	.	8g	.
8DJ	.	.	.	.	.	8fJ	.
2A	.	2c#i	.	.	.	2e	.
=125	=125	=125	=125	=125	=125	=125	=125
*	*	*	*Xedit	*	*	*	*
4.D	-di,	[1d	-di:	2.A	mun-	2d	-di,
8E	.	.	.	.	.	.	.
4F	.	.	.	.	.	4a	mun-
4G	mun-	.	.	4G	.	4b-j	.
=126	=126	=126	=126	=126	=126	=126	=126
4F	.	1d]	.	4A	.	4a	.
4G	.	.	.	4B-j	.	4.dd	.
4D	.	.	.	4A	.	.	.
.	.	.	.	.	.	8cc	.
[4G	.	.	.	[4B-j	.	[4b-j	.
!!LO:LB:g=original
=127	=127	=127	=127	=127	=127	=127	=127
8G]L	.	1r	.	8B-]L	.	8b-]L	.
16FL	.	.	.	8AJ	.	8aJ	.
16EJJ	.	.	.	.	.	.	.
4D	.	.	.	2d	.	4a	.
*	*	*	*	*	*	*	*Xedit
2E	-di:	.	.	.	.	2g	-di:
.	.	.	.	4c#i	.	.	.
=128	=128	=128	=128	=128	=128	=128	=128
[1D	do-	[1f	do-	2.d	.	2r	.
.	.	.	.	.	.	[2a	do-
.	.	.	.	8cL	.	.	.
.	.	.	.	8BJ	.	.	.
=129	=129	=129	=129	=129	=129	=129	=129
2D]	.	2f]	.	2A	-di:	2a]	.
2G	.	2d	.	2r	.	2b	.
=130	=130	=130	=130	=130	=130	=130	=130
4.C	.	1e	.	1r	.	4.cc	.
8D	.	.	.	.	.	8b	.
4.E	.	.	.	.	.	4.g	.
8F	.	.	.	.	.	8a	.
=131	=131	=131	=131	=131	=131	=131	=131
*	*	*lig	*	*	*	*	*
2.G	.	1d	-na	2B	do-	4.b	.
.	.	.	.	.	.	8cc	.
.	.	.	.	2G	.	[2dd	.
8FL	.	.	.	.	.	.	.
8EJ	.	.	.	.	.	.	.
=132	=132	=132	=132	=132	=132	=132	=132
[1D	-na	[1f	.	1A	-na	4dd]	.
.	.	.	.	.	.	8ccL	.
.	.	.	.	.	.	8bJ	.
.	.	.	.	.	.	2a	-na
!!LO:LB:g=original
=133	=133	=133	=133	=133	=133	=133	=133
1D]	.	2f]	.	2F	no-	2r	.
*	*	*Xlig	*	*	*	*	*
.	.	2f	no-	8FL	.	2dd	no-
.	.	.	.	8G	.	.	.
.	.	.	.	8A	.	.	.
.	.	.	.	8BJ	.	.	.
=134	=134	=134	=134	=134	=134	=134	=134
*	*	*	*	*	*	*	*edit
2A	no-	2e	-bis	2c	-bis	2cc	-bis
*	*	*	*edit	*	*	*	*
4B	-bis	[2d	pa-	4.G	pa-	4b	.
[4G	pa-	.	.	.	.	[4b	pa-
.	.	.	.	8A	.	.	.
=135	=135	=135	=135	=135	=135	=135	=135
2G]	.	2d]	.	8BL	.	8b]L	.
.	.	.	.	8cJ	.	8a	.
.	.	.	.	4d	.	8g	.
.	.	.	.	.	.	8fJ	.
2A	.	2c	.	4.c	.	4e	.
.	.	.	.	.	.	[4a	.
.	.	.	.	8d	.	.	.
=136	=136	=136	=136	=136	=136	=136	=136
2E	-cem,	1B	.	4.e	.	4a]	.
.	.	.	.	.	.	8gL	.
.	.	.	.	8d	.	8fJ	.
4r	.	.	.	4B	.	2g	-cem,
4E	pa-	.	.	4e	.	.	.
=137	=137	=137	=137	=137	=137	=137	=137
4F	.	1A	.	4c	.	4r	.
4.D	.	.	.	4.d	.	4.f	do-
8E	.	.	.	8c	.	8g	.
4F	.	.	.	4A	-cem,	4a	.
=138	=138	=138	=138	=138	=138	=138	=138
*	*	*lig	*	*	*	*	*
2G	-cem,	2G	.	4d	pa-	2b-i	.
.	.	.	.	4e	.	.	.
2GG	pa-	2B-i	.	4d	.	2g	.
*	*	*Xlig	*	*	*	*	*
.	.	.	.	[4g	.	.	.
!!LO:LB:g=original
=139	=139	=139	=139	=139	=139	=139	=139
1D	.	1A	.	4g]	.	2a	-na,
.	.	.	.	8f#iL	.	.	.
.	.	.	.	8eJ	.	.	.
.	.	.	.	2f#i	.	4r	.
.	.	.	.	.	.	[4dd	do-
=140	=140	=140	=140	=140	=140	=140	=140
2GG	-cem,	1G	-cem,	1g	-cem,	8dd]L	.
.	.	.	.	.	.	8cc	.
.	.	.	.	.	.	8b	.
.	.	.	.	.	.	8aJ	.
2r	.	.	.	.	.	4.b	.
.	.	.	.	.	.	8a	.
=141	=141	=141	=141	=141	=141	=141	=141
*	*Xedit	*	*	*	*Xedit	*	*
2.G	do-	2r	.	4.d	do-	8gL	.
.	.	.	.	.	.	8fJ	.
.	.	.	.	.	.	2g	.
.	.	.	.	8c	.	.	.
.	.	2d	do-	4B	.	.	.
[4F	-na	.	.	4A	-na	[4a	.
=142	=142	=142	=142	=142	=142	=142	=142
4F]	.	2c	-na	1r	.	4a]	.
4E	.	.	.	.	.	8gL	.
.	.	.	.	.	.	8fJ	.
2A	no-	2c	no-	.	.	2e	-na
=143	=143	=143	=143	=143	=143	=143	=143
4.D	.	[1d	.	4A	no-	2r	.
.	.	.	.	4B	.	.	.
8E	.	.	.	.	.	.	.
4F	.	.	.	4A	.	4a	no-
[4G	-bis	.	.	4d	.	4b	.
=144	=144	=144	=144	=144	=144	=144	=144
4G]	.	2d]	.	2B	.	4.dd	.
*	*edit	*	*	*	*	*	*
4.GG	pa-	.	.	.	.	.	.
.	.	.	.	.	.	8cc	.
.	.	4c	.	4G	.	4b	.
8AAL	.	.	.	.	.	.	.
8BB	.	4B	.	[4d	.	8aL	.
8CJ	.	.	.	.	.	8gJ	.
!!LO:PB:g=original
=145	=145	=145	=145	=145	=145	=145	=145
4.D	.	1A	-bis	8d]L	.	4.f	.
.	.	.	.	8eJ	.	.	.
.	.	.	.	4.f	.	.	.
8E	.	.	.	.	.	8g	.
4.F	.	.	.	.	.	4.a	.
.	.	.	.	8e	.	.	.
.	.	.	.	4c	-bis	.	.
8E	.	.	.	.	.	8b	.
=146	=146	=146	=146	=146	=146	=146	=146
*	*	*lig	*Xedit	*	*	*	*
1C	-cem,	[1e	pa-	1r	.	4.cc	.
.	.	.	.	.	.	8b	.
*	*	*	*	*	*	*	*Xedit
.	.	.	.	.	.	2g	-bis
=147	=147	=147	=147	=147	=147	=147	=147
*	*	*	*	*	*edit	*	*
1r	.	1e_	.	4.c	pa-	2r	.
.	.	.	.	8B	.	.	.
.	.	.	.	2A	.	2cc	pa-
=148	=148	=148	=148	=148	=148	=148	=148
4r	.	1e_	.	4G	.	4b	.
*	*	*	*	*	*	*	*edit
2c	pa-	.	.	4E	.	2g	-cem,
.	.	.	.	2C	-cem,	.	.
[4A	.	.	.	.	.	[4c	pa-
=149	=149	=149	=149	=149	=149	=149	=149
4A]	.	1e]	.	4.c	pa-	8c]L	.
.	.	.	.	.	.	8d	.
8GL	.	.	.	.	.	8e	.
8FJ	.	.	.	8d	.	8fJ	.
4E	.	.	.	8eL	.	4.g	.
.	.	.	.	8fJ	.	.	.
4C	.	.	.	[4g	.	.	.
.	.	.	.	.	.	8a	.
=150	=150	=150	=150	=150	=150	=150	=150
2G	.	[1d	.	2g]	.	2b	.
4.D	.	.	.	2f	.	4a	.
.	.	.	.	.	.	[4dd	.
8E	.	.	.	.	.	.	.
!!LO:LB:g=original
=151	=151	=151	=151	=151	=151	=151	=151
4F	.	1d]	.	2d	-cem,	8dd]L	.
*	*	*Xlig	*	*	*	*	*
.	.	.	.	.	.	8ccJ	.
4G	.	.	.	.	.	4b	.
4F	.	.	.	2r	.	4.a	.
4D	.	.	.	.	.	.	.
.	.	.	.	.	.	8g	.
=152	=152	=152	=152	=152	=152	=152	=152
*	*	*lig	*	*	*	*	*
2A	.	2c	.	2r	.	2e	.
*	*	*	*	*	*Xedit	*	*
4D	.	2B	.	4.d	pa-	2d	-cem,
*	*	*Xlig	*	*	*	*	*
[4G	-cem,	.	.	.	.	.	.
.	.	.	.	8c	.	.	.
=153	=153	=153	=153	=153	=153	=153	=153
*	*	*lig	*	*	*	*	*
4G]	.	1G	.	8BL	.	4r	.
.	.	.	.	8AJ	.	.	.
*	*Xedit	*	*	*	*	*	*
4.GG	pa-	.	.	2B	.	2dd	pa-
8AA	.	.	.	.	.	.	.
4BB	.	.	.	8AL	.	8ccL	.
.	.	.	.	8GJ	.	8bJ	.
=154	=154	=154	=154	=154	=154	=154	=154
4AA	.	1A	.	4.F#i	.	8ccL	.
*	*	*Xlig	*	*	*	*	*
.	.	.	.	.	.	8b	.
2.D	.	.	.	.	.	8a	.
.	.	.	.	8G	.	8gJ	.
.	.	.	.	2A	.	4.f#i	.
.	.	.	.	.	.	8e	.
=155	=155	=155	=155	=155	=155	=155	=155
4GG	.	[1Gl	-cem.	4B	.	[1gl	-cem.
4C	.	.	.	4c	.	.	.
4BB	.	.	.	4d	.	.	.
4C	.	.	.	4e	.	.	.
=156	=156	=156	=156	=156	=156	=156	=156
1GGl	-cem.	1G]	.	1dl	-cem.	1g]	.
==	==	==	==	==	==	==	==
*-	*-	*-	*-	*-	*-	*-	*-
!!!system-decoration: [*]
!!!RDF**kern: j = editorial accidental, optional, paren up
!!!RDF**kern: i = editorial accidental
!!!RDF**kern: l = terminal breve
!!!PTL: Gaspar van Weerbeke: Collected Works. I. Masses, Part 1
!!!ISBN: 978-1-59551-515-5
!!!PPR: American Institute of Musicology
!!!PC#: Corpus Mensurabilis Musicae 106/I.1
!!!PDT: 2016
!!!PED: Pavanello, Agnese
!!!YEC: Copyright 2014, Pavanello, Agnese
!!!YEM: CC-BY-NC 4.0 (https://creativecommons.org/licenses/by-nc/4.0/legalcode)
!!!EED: Mair-Gruber, Roland
!!!EEV: 2021/11/09
!!!title: @{OPR} &mdash; @{OTL}
!!!muse2ps: C^@{COM}^i2I150v90,90,90,120c122z18l2700t130
